X:680
T:
N:»Monfarino» (mångfadri efter gotländskt uttal) dans efter kadriljen.
S:Efter »Florsen» i Burs.
R:kadrilj
O:Gotland, Burs
M:2/3
L:1/16
K:D
Ad|fd d2Ad|f2d2 d2cd|e2e2 a3g|fgfe d2Ad|f2d2 d2Ad|f2dd d2cd|e2e2
a2a2|d6::cd|e2e2 a3g|fgfe d2cd|e2e2 a3g|fgfe d4|{g}b2g2 g2fg|a2f2 f2ef|g2A2
c2e2|defg a4|{g}b2g2 g2fg|a2f2 f2ef|g2A2 c2e2|d6:|

